X: 3
T: Oyster River Hornpipe  v.2
P: Piffero secondo b0036
O: safd 115
%R: hornpipe, march
F: http://ancients.sudburymuster.org/mus/ssp/pdf/mountainF.pdf
Z: 2019 John Chambers <jc:trillian.mit.edu>
M: 2/4
L: 1/16
K: G
D2 |\
C2E2 EDCD | E2A2 ABcB | G2E2 D2CE | EFED CB,A,G, |\
C2E2 EDCD | E2A2 ABcB | G2E2 D2CE | E2C2 C2 :|
|: D2 |\
G3A  GFED | G2G2 A2GA | B2B2 A2GA | B2BA GFED |\
EFGA GFED | G2G2 A2GA | B2B2 A2GA | B2G2 G2 :|

%%center (drum bridge, paddy on the handcar, 8 bars)


